X:1
T:Haec dies a 6 - Byrd
T:James Gibb editions
T:#
%%score { 1 | 2 } 3 { 4 | 5 } 6
L:1/8
Q:1/4=100
M:2/2
K:F
V:1 treble nm="Soprano I" snm="S"
V:2 treble 
V:3 treble nm="Alto" snm="A"
V:4 treble-8 nm="Tenor I" snm="T"
V:5 treble-8 
V:6 bass nm="Bass" snm="B"
V:1
"^Haec dies a 6""^William Byrd\n(1543-1623)"{[Cd]} F4 (AGA{[Cd]}B | c4) F2 B2 | A2 F2 G3 G | %3
w: Haec di\- * * *|* es quam|fe- cit Do- mi-|
 F2 F4 E2 | F2 F2 (AGAB | c4) G4 |[M:2/2] z2 B2 A2 F2 | A3 A G4 | z4 F4 | (AGAB c4) | F4 z2 c2 | %11
w: nus, Do- mi-|nus, haec di\- * * *|* es|quam fe- cit|Do- mi- nus,|haec|di\- * * * *|es quam|
 A2 F2 (A4 | G4 C4 | F8 | z4 z2 c2 | A2 F2 G3 G | F4 z2 c2 | A2 F2 G3 G | F4 z2 G2 | E2 C4 F2- | %20
w: fe- cit Do\-|* mi-|nus,|quam|fe- cit Do- mi-|nus, quam|fe- cit Do- mi-|nus, quam|fe- cit Do\-|
 F2 ED E2) E2 ||[M:3/4] F4 z2 | F4 F2 | G4 A2 | F4 E2 |[M:3/4] G4 G2 ||[M:6/8] z6 | c2 A B2 G | %28
w: * * * * mi-|nus.|Ex- ul-|te- mus,|ex- ul-|te- mus||et lae- te- mur|
 A3 (G/F/ G2 ||[M:3/4] F3 E/D/ E2 | F4) z2 | F3 (G A2) | B2 F2 z2 || B4 c2 | d4 c2 ||[M:6/8] z6 | %36
w: in e\- * *||a,|ex- ul\- *|te- mus,|ex- ul-|te- mus||
 d2 B c2 A |[M:3/4] B2 G2 A2 ||[M:3/4] d2 B c2 A- ||[M:6/8] A=B (c>_BAG- ||[M:3/4] G^F) G4 || %41
w: et lae- te- mur|in e- a,|et lae- te- mur|* in e\- * * *|* * a.|
[M:2/2] z4 E4- | E2 (FG) (A3 G | AB G2) A4 |[M:2/2] x6 F2 | F8 | G8 | z8 | z8 | z8 | z8 | z4 A4- | %52
w: Al\-|* le\- * lu\- *|* * * ia,|le-|lu-|ia,|||||al\-|
 A2 (Bc) (d2 A2 | Bc A2 G2 A2) | D4 d4- | d2 c2 B4 | A8- | A8 | z8 | z8 | z4 G4- | G2 (AB) (c2 G2 | %62
w: * le\- * lu\- *||ia, al\-|* le- lu-|ia,||||al\-|* le\- * lu\- *|
 c2 =B2) c4 | G6 G2 | A4 F4 | F3 F G2 A2 | z4 A4- | A2 (Bc) (d2 D2 | F3 G) A4 | F3 E (F2 B2) | %70
w: * * ia,|al- le-|lu- ia,|al- le- lu- ia,|al\-|* le\- * lu\- *|* * ia,|al- le- lu\- *|
 A4 z4 | z2 B4 G2 | (F3 G A3 =B) | c2 G4 F2 | (E3 F) G4 | z2 c4 A2 | %76
w: ia,|al- le-|lu\- * * *|ia, al- le-|lu\- * ia,|al- le-|
[Q:1/4=98] (G3[Q:1/4=97] F[Q:1/4=96] E2[Q:1/4=95] F[Q:1/4=95]G) | %77
w: lu\- * * * *|
[Q:1/4=93] A4[Q:1/4=91] c2[Q:1/4=90] c2 |[Q:1/4=87] c8 |[Q:1/4=85] A8 |] %80
w: ia, al- le-|lu-|ia.|
V:2
 z8 | z8 | z8 | z4 G4 | (AGAB c4) | C4 z4 |[M:2/2] z2 G2 F2 D2 | (E2 F4) E2 | F4 z4 | F4 z2 (A2- | %10
w: |||Haec|di\- * * * *|es|quam fe- cit|Do\- * mi-|nus,|haec di\-|
 AGAB) c4 | F4 z4 | z2 B2 A2 F2- | F2 (A3 D F2 | E2) A2 G4 | z4 z2 c2 | A2 F2 G3 G | F4 z2 c2 | %18
w: |es|quam fe- cit|* Do\- * *|* mi- nus,|quam|fe- cit Do- mi-|nus, quam|
 A2 F2 G3 G | C4 (c4- | c2 G2 c3) B ||[M:3/4] A4 z2 | B4 A2 | c4 c2 | z6 |[M:3/4] z6 || %26
w: fe- cit Do- mi|nus, Do\-|* * * mi-|nus.|Ex- ul-|te- mus|||
[M:6/8] c2 A B2 G | z6 | z6 ||[M:3/4] z6 | z6 | B4 c2 | d4 c2 || z6 | z6 ||[M:6/8] d2 B c2 A | z6 | %37
w: et lae- te- mur,|||||ex- ul-|te- mus|||et lae- te- mur,||
[M:3/4] d2 B c2 A ||[M:3/4] B3 G A2 ||[M:6/8] F2 G (A2 =B ||[M:3/4] c3 =B/A/ B2) ||[M:2/2] c8 | %42
w: et lae- te- mur,|et lae- te-|mur in e\- *||a.|
 c4 c4 | c8- |[M:2/2] c4 F4 | z8 | E6 (FG) | (A3 GAB G2) | A8 | F4 F4 | G8 | F8- | F8 | z8 | %54
w: Al- le-|lu\-|* ia,||al- le\- *|lu\- * * * *|ia,|al- le-|lu-|ia,|||
 z4 D2 D2 | (A3 G F2 G2) | E8 | F8- | F4 F4 | G8 | G8 | z8 | z8 | z8 | z2 A4 (Bc) | %65
w: al- le-|lu\- * * *|ia,|al\-|* le-|lu-|ia,||||al- le\- *|
 (d2 A2 d2 ^c2) | d8 | z8 | z4 z2 A2- | A2 (Bc) (d2 D2 | F3 G) A4 | z8 | z8 | z2 c4 A2 | %74
w: lu\- * * *|ia,||al\-|* le\- * lu\- *|* * ia,|||al- le-|
 (G3 F E2 FG) | A4 c2 c2 | c4 G2 c2- | c2 C2 (F4- | F2 ED E4) | F8 |] %80
w: lu\- * * * *|ia, al- le-|lu- ia, al\-|* le- lu\-||ia.|
V:3
 z8 | C4 (DCDE | F4) C2 _E2 | D2 B,2 C3 C | F8 | z2 F2 E2 C2 |[M:2/2] D6 D2 | C8 | A,6 F2 | F4 z4 | %10
w: |Haec di\- * * *|* es quam|fe- cit Do- mi-|nus,|quam fe- cit|Do- mi-|nus,|Do- mi-|nus,|
 z2 F2 E2 C2 | D3 D C4 | z8 | F4 (AGAB | c4) G4 | z4 z2 E2 | F2 D2 E3 E | F4 z4 | D4 E4- | E4 C4 | %20
w: quam fe- cit|Do- mi- nus,||haec di\- * * *|* es|quam|fe- cit Do- mi-|nus,|quam fe\-|* cit|
 C6 C2 ||[M:3/4] C4 z2 | D4 F2 | E4 F2 | z6 |[M:3/4] z6 ||[M:6/8] E2 F D2 E | F2 F D2 E | %28
w: Do- mi-|nus.|Ex- ul-|te- mus|||et lae- te- mur,|et lae- te- mur,|
 F2 F D2 E ||[M:3/4] C2 C4 | C4 z2 | DE F4 | D2 DE F2- || F2 D2 z2 | DE F3 C ||[M:6/8] F2 G E2 F | %36
w: et lae- te- mur|in e-|a,|ex- ul- te-|mus, ex- ul- te\-|* mus,|ex- ul- te- mus|et lae- te- mur,|
 F2 G E2 F |[M:3/4] G3 E F2 ||[M:3/4] D3 E (F2- || FD) C2 z G || (EC D4) ||[M:2/2] E4 C4- | %42
w: et lae- te- mur,|et lae- te-|mur in e\-|* * a, in|e\- * *|a. Al\-|
 C2 (DE) (F2 C2 | F2 E2) F4 |[M:2/2] z8 | z8 | z8 | z4 C4- | C2 (DE) (F2 C2) | (D_E C2 D2 F2 | %50
w: * le\- * lu\- *|* * ia,||||al\-|* le\- * lu\- *||
 EF D4 ^C2) | D8 | z8 | z4 D4- | D2 (EF) (G2 D2 | FG E3 D D2- | D2 ^C=B, C4) | D8 | z8 | z2 G4 F2 | %60
w: |ia,||al\-|* le\- * lu\- *|||ia,||al- le-|
 (E3 DEF D2) | E2 F2 C2 (E2- | E2 D2) E4 | E3 D (EFDE) | F8 | z2 D4 E2 | (F3 E FD F2 | C2 DE) F4 | %68
w: lu\- * * * *|ia, al- le- lu\-|* * ia,|al- le- lu\- * * *|ia,|al- le-|lu\- * * * *|* * * ia,|
 z8 | z8 | z2 F4 E2 | (D3 C D2 B,2) | A,4 z4 | z8 | z2 c4 B2 | (A3 G) F4 | z2 C4 (DE) | (F4 C4- | %78
w: ||al- le-|lu\- * * *|ia,||al- le-|lu\- * ia,|al- le\- *|lu\- *|
 C8) | C8 |] %80
w: |ia.|
V:4
 z8 | z8 | z8 | z8 | z8 | z8 |[M:2/2][K:treble-8] z8 | z8 | z2 F2 (AGAB | c4) C2 c2 | A2 F2 G3 G | %11
w: ||||||||Haec di\- * * *|* es quam|fe- cit Do- mi-|
 F2 (D2 E2 F2- | F2 E2 F2 F2 | (AGAB c4) | C2 c2 c2 c2 | c3 c c4 | z2 F2 E2 C2 | D3 D C4 | F4 c4- | %19
w: nus, Do\- * *|* mi- nus, haec|di\- * * * *|es quam fe- cit|Do- mi- nus,|quam fe- cit|Do- mi- nus,|quam fe\-|
 c2 G2 A4 | G4) C4 ||[M:3/4] C4 z2 | z6 | z6 | A4 c2 |[M:3/4][K:treble-8] =B4 c2 || %26
w: * cit Do\-|* mi-|nus.|||Ex- ul-|te- mus|
[M:6/8] A2 F G2 C | F2 c B2 c | F2 F G2 E ||[M:3/4] F2 C4 | F4 z2 | z6 | B4 c2 || %33
w: et lae- te- mur,|et lae- te- mur,|et lae- te- mur|in e-|a,||ex- ul-|
[M:6/8][K:treble-8] d4 c2 |[M:6/8] B2 d B2 A || d2 d c2 c | z6 |[M:3/4] G3 C F2 || %38
w: te- mus|et lae- te- mur,|et lae- te- mur,||et lae- te-|
[M:3/4][K:treble-8] GB G2 F2- ||[M:3/4] F2 z2 z2 || z A (=Bd G2) ||[M:2/2] G8 | z8 | z4 F4- | %44
w: mur in e- a,||in e\- * *|a.||Al\-|
[M:2/2][K:treble-8] F2 (GA) (B2 F2 | B3 A Bc d2) | c8- | c8 | z8 | z8 | z8 | A6 (Bc) | (d6 c2 | %53
w: * le\- * lu\- *||ia,|||||al- le\- *|lu\- *|
 B2 F2 Bc A2 | G3 A B4) | A4 z4 | z4 A4- | A2 (Bc) (d4- | d2 c2 d_e c2 | d2 _e2) d4 | z8 | %61
w: ||ia,|al\-|* le\- * lu\-||* * ia,||
 z2 F4 (ED) | (C2 G2) C4 | C2 C2 (C2 G2) | F8 | z4 z2 A2- | A2 (Bc) (d2 D2 | F3 E) D4- | D4 z4 | %69
w: al- le\- *|lu\- * ia,|al- le- lu\- *|ia,|al\-|* le\- * lu\- *|* * ia,||
 A6 (Bc) | (d2 A2 d3 c | B3 A) G4 | z2 A4 F2 | (E3 F G2 AB) | c8 | z8 | z4 c4- | c4 A4 | G8 | F8 |] %80
w: al- le\- *|lu\- * * *|* * ia,|al- le-|lu\- * * * *|ia,||al\-|* le-|lu-|ia.|
V:5
 z8 | z8 | z8 | z8 | z4 F4 | (AGAB c4) |[M:2/2][K:treble-8] G4 z2 B2 | A2 F2 G3 G | F4 z2 c2 | %9
w: ||||Haec|di\- * * * *|es quam|fe- cit Do- mi-|nus, quam|
 A2 F2 (G2 FE | F2 D2 E3) E | F4 z4 | G4 (AGAB | c4) F4 | z2 F2 E2 C2 | F3 F C4 | F4 c3 c | %17
w: fe- cit Do\- * *|* * * mi-|nus,|haec di\- * * *|* es|quam fe- cit|Do- mi- nus,|quam fe- cit|
 F2 A2 c4 | z2 F2 E2 C2 | G3 G C4 | z2 G4 G2 ||[M:3/4] F4 z2 | B4 d2 | c4 F2 | c4 c2 | %25
w: Do- mi- nus,|quam fe- cit|Do- mi- nus,|Do- mi-|nus.|Ex- ul-|te- mus,|ex- ul-|
[M:3/4][K:treble-8] d4 e2 ||[M:6/8] c2 c B2 c | z6 | c2 A B2 G ||[M:3/4] A2 G4 | A4 z2 | Bc d2 c2 | %32
w: te- mus|et lae- te- mur,||et lae- te- mur|in e-|a,|ex- ul- te- mus,|
 GA B2 A2 ||[M:6/8][K:treble-8] B2 F B2 A |[M:6/8] z6 || B2 G A2 F | d2 d c2 c | %37
w: ex- ul- te- mus|et lae- te- mur,||et lae- te- mur,|et lae- te- mur,|
[M:3/4] B2 d c2 c ||[M:3/4][K:treble-8] B2 d c2 c ||[M:3/4] z f (ec d2) || c2 z G d2 ||[M:2/2] c8 | %42
w: et lae- \-te- mur,|et lae- te- mur|in e\- * *|a, in e-|a.|
 z8 | z4 z2 A2- |[M:2/2][K:treble-8] A2 (Bc) (d3 c | d_e c2) d4 | G2 G2 (c3 B | A2) E2 z4 | %48
w: |Al\-|* le\- * lu\- *|* * * ia,|al- le- lu\- *|* ia,|
 z2 F4 (GA) | (B2 F2 Bc A2 | G2 F2 E4) | D8 | z8 | d6 d2 | (B4 G4 | D2 A2 B2 G2 | A8) | D8 | z8 | %59
w: al- le\- *|lu\- * * * *||ia,||al- le-|lu\- *|||ia,||
 G6 (AB) | (c2 G2 c2 =B2) | c4 A2 c2- | c2 d2 c4 | z8 | z2 F4 (GA) | (B2 F2 B2 A2) | D8 | z4 A4- | %68
w: al- le\- *|lu\- * * *|ia, al- le\-|* lu- ia,||al- le\- *|lu\- * * *|ia,|al\-|
 A2 D2 (F3 E) | D8- | D8 | z8 | z2 F4 D2 | (C3 D E2 F2) | C4 z4 | z4 z2 c2- | c2 A2 G4 | F4 F2 F2 | %78
w: * le- lu\- *|ia,|||al- le-|lu\- * * *|ia,|al\-|* le- lu-|ia, al- le-|
 (G4 C4) | C8 |] %80
w: lu\- *|ia.|
V:6
 z8 | z8 | z8 | z8 | z8 | z8 |[M:2/2] z8 | z4 C,4 | (D,C,D,E, F,4) | F,,2 F,2 E,2 C,2 | %10
w: |||||||Haec|di\- * * * *|es quam fe- cit|
 D,3 D, C,4 | z2 B,,2 A,,2 F,,2 | G,,3 G,, F,,4 | z4 F,,4 | (A,,G,,A,,B,, C,4) | F,,2 F,2 E,2 C,2 | %16
w: Do- mi- nus,|quam fe- cit|Do- mi- nus,|haec|di\- * * * *|es quam fe- cit|
 D,3 D, C,4 | z2 F,2 E,2 C,2 | D,3 D, C,4 | z2 C,2 A,,2 F,,2 | C,6 C,2 ||[M:3/4] F,,4 z2 | z6 | %23
w: Do- mi- nus,|quam fe- cit|Do- mi- nus,|quam fec- it|Do- mi-|nus.||
 z6 | F,4 A,2 |[M:3/4] G,4 C,2 ||[M:6/8] z6 | A,2 F, G,2 C, | z6 ||[M:3/4] z6 | z6 | B,,4 F,2 | %32
w: |Ex- ~ul-|te- mus||et lae- te- mur,||||ex- ul-|
 B,4 F,2 || B,,4 F,2 | B,4 F,2 ||[M:6/8] z6 | B,2 G, A,2 F, |[M:3/4] z6 ||[M:3/4] G,3 C, F,2 || %39
w: te- mus,|ex- ul-|te- mus||et lae- te- mur,||et lae- te-|
[M:6/8] D,2 E, (F,2 G, ||[M:3/4] A,2 G,4) ||[M:2/2] C,8 | z8 | z8 |[M:2/2] z8 | z8 | C,6 (D,E,) | %47
w: mur in e\- *||a.|||||Al- le\- *|
 (F,2 C,2 F,2 E,2) | F,8 | z8 | z8 | z8 | D,6 (E,F,) | (G,2 D,2 G,2 ^F,2) | G,8 | z8 | z8 | %57
w: lu\- * * *|ia,||||al- le\- *|lu\- * * *|ia,|||
 F,6 (G,A,) | (B,2 F,2 B,2 A,2) | B,8 | z8 | z8 | G,6 (A,B,) | (C2 G,2 C2 =B,2) | C8 | z8 | z8 | %67
w: al- le\- *|lu\- * * *|ia,|||al- le\- *|lu\- * * *|ia,|||
 A,6 (B,C) | (D2 A,2 D2 C2) | D8 | z2 D,4 (E,F,) | (G,2 G,,2 B,,3 C,) | D,8 | z8 | z2 C,4 (D,E,) | %75
w: al- le\- *|lu\- * * *|ia,|al- le\- *|lu\- * * *|ia,||al- le\- *|
 (F,2 F,,2 A,,3 B,,) | C,8 | z2 F,4 F,2 | C,8 | F,,8 |] %80
w: lu\- * * *|ia,|al- le-|lu-|ia.|

